exported-svg/crosshair.svg

<svg height="24" viewBox="0 0 24 24" width="24" xmlns="http://www.w3.org/2000/svg"><path d="m12 21.9870679v-3.4870679c0-.2761424.2238576-.5.5-.5s.5.2238576.5.5v3.4870679c4.8487018-.2514205 8.7356474-4.1383661 8.9870679-8.9870679h-3.4870679c-.2761424 0-.5-.2238576-.5-.5s.2238576-.5.5-.5h3.4870679c-.2514205-4.84870178-4.1383661-8.73564736-8.9870679-8.98706794v3.48706794c0 .27614237-.2238576.5-.5.5s-.5-.22385763-.5-.5v-3.48706794c-4.84870178.25142058-8.73564736 4.13836616-8.98706794 8.98706794h3.48706794c.27614237 0 .5.2238576.5.5s-.22385763.5-.5.5h-3.48706794c.25142058 4.8487018 4.13836616 8.7356474 8.98706794 8.9870679zm.5 1.0129321c-5.79898987 0-10.5-4.7010101-10.5-10.5 0-5.79898987 4.70101013-10.5 10.5-10.5 5.7989899 0 10.5 4.70101013 10.5 10.5 0 5.7989899-4.7010101 10.5-10.5 10.5z"/></svg>

<?xml version="1.0" encoding="UTF-8"?>
<svg width="24px" height="24px" viewBox="0 0 24 24" version="1.1" xmlns="http://www.w3.org/2000/svg" xmlns:xlink="http://www.w3.org/1999/xlink">
    <!-- Generator: Sketch 55.2 (78181) - https://sketchapp.com -->
    <title>crosshair</title>
    <desc>Created with Sketch.</desc>
    <g id="crosshair" stroke="none" stroke-width="1" fill="none" fill-rule="evenodd">
        <path d="M12,21.9870679 L12,18.5 C12,18.2238576 12.2238576,18 12.5,18 C12.7761424,18 13,18.2238576 13,18.5 L13,21.9870679 C17.8487018,21.7356474 21.7356474,17.8487018 21.9870679,13 L18.5,13 C18.2238576,13 18,12.7761424 18,12.5 C18,12.2238576 18.2238576,12 18.5,12 L21.9870679,12 C21.7356474,7.15129822 17.8487018,3.26435264 13,3.01293206 L13,6.5 C13,6.77614237 12.7761424,7 12.5,7 C12.2238576,7 12,6.77614237 12,6.5 L12,3.01293206 C7.15129822,3.26435264 3.26435264,7.15129822 3.01293206,12 L6.5,12 C6.77614237,12 7,12.2238576 7,12.5 C7,12.7761424 6.77614237,13 6.5,13 L3.01293206,13 C3.26435264,17.8487018 7.15129822,21.7356474 12,21.9870679 Z M12.5,23 C6.70101013,23 2,18.2989899 2,12.5 C2,6.70101013 6.70101013,2 12.5,2 C18.2989899,2 23,6.70101013 23,12.5 C23,18.2989899 18.2989899,23 12.5,23 Z" id="Combined-Shape" fill="#000000" fill-rule="nonzero"></path>
    </g>
</svg>
